X: 10581
T: Selection of IRISH REELS
C: Arr. by W. B. Laybourn
R: reel
B: K\"ohler's Violin Repository, v.1, 1885 p.58 #1
F: http://www.archive.org/details/klersviolinrepos01edin
Z: 2011 John Chambers <jc:trillian.mit.edu>
M: C|
L: 1/8
K: Amix
   vcud | (eA)AA (eg)fg | (eA)AA e2 cd | (eA)AA (eg)fg | (dB)GB d2 :|
|: vcud | (ea)ag (eg)fg | (ea)ag e2 cd | (ea)ag (ef)ge | (dB)GB d2 :|

%%sep 2 1 500

